svg/color/dot.svg

<svg width="64" height="65" viewBox="0 0 64 65" fill="none" xmlns="http://www.w3.org/2000/svg">
<rect y="0.303711" width="64" height="64" rx="32" fill="white"/>
<rect x="0.5" y="0.803711" width="63" height="63" rx="31.5" stroke="#070B14" stroke-opacity="0.15"/>
<path d="M32.0049 20.0381C36.2199 20.0381 39.6369 18.0537 39.6369 15.6059C39.6369 13.1581 36.2199 11.1737 32.0049 11.1737C27.7899 11.1737 24.3729 13.1581 24.3729 15.6059C24.3729 18.0537 27.7899 20.0381 32.0049 20.0381Z" fill="#E6007A"/>
<path d="M32.0049 53.4338C36.2199 53.4338 39.6369 51.4495 39.6369 49.0016C39.6369 46.5538 36.2199 44.5695 32.0049 44.5695C27.7899 44.5695 24.3729 46.5538 24.3729 49.0016C24.3729 51.4495 27.7899 53.4338 32.0049 53.4338Z" fill="#E6007A"/>
<path d="M21.3692 26.1734C23.4767 22.5286 23.463 18.581 21.3386 17.3563C19.2142 16.1315 15.7836 18.0934 13.6761 21.7382C11.5686 25.383 11.5823 29.3306 13.7066 30.5554C15.831 31.7801 19.2617 29.8182 21.3692 26.1734Z" fill="#E6007A"/>
<path d="M50.3303 42.8692C52.4378 39.2244 52.4253 35.2775 50.3023 34.0536C48.1794 32.8296 44.7499 34.7922 42.6424 38.437C40.5349 42.0818 40.5474 46.0287 42.6704 47.2527C44.7933 48.4766 48.2228 46.514 50.3303 42.8692Z" fill="#E6007A"/>
<path d="M21.3397 47.252C23.4641 46.0273 23.4778 42.0797 21.3703 38.4349C19.2628 34.79 15.8321 32.8282 13.7077 34.0529C11.5834 35.2777 11.5697 39.2252 13.6772 42.8701C15.7847 46.5149 19.2153 48.4768 21.3397 47.252Z" fill="#E6007A"/>
<path d="M50.3043 30.5561C52.4272 29.3321 52.4398 25.3853 50.3322 21.7404C48.2247 18.0956 44.7953 16.133 42.6723 17.357C40.5494 18.5809 40.5368 22.5278 42.6444 26.1726C44.7519 29.8174 48.1813 31.78 50.3043 30.5561Z" fill="#E6007A"/>
</svg>

<svg xmlns="http://www.w3.org/2000/svg" width="64" height="65" fill="none" viewBox="0 0 64 65"><rect width="64" height="64" y=".304" fill="#fff" rx="32"/><rect width="63" height="63" x=".5" y=".804" stroke="#070B14" stroke-opacity=".15" rx="31.5"/><path fill="#E6007A" d="M32.005 20.038c4.215 0 7.632-1.984 7.632-4.432s-3.417-4.432-7.632-4.432-7.632 1.984-7.632 4.432 3.417 4.432 7.632 4.432m0 33.396c4.215 0 7.632-1.984 7.632-4.432s-3.417-4.433-7.632-4.433-7.632 1.985-7.632 4.433 3.417 4.432 7.632 4.432M21.37 26.173c2.107-3.644 2.093-7.592-.031-8.817s-5.555.737-7.663 4.382c-2.107 3.645-2.094 7.593.03 8.817 2.125 1.225 5.556-.737 7.663-4.382M50.33 42.87c2.108-3.646 2.095-7.592-.028-8.816s-5.552.738-7.66 4.383c-2.107 3.645-2.095 7.592.028 8.816s5.553-.739 7.66-4.384m-28.99 4.383c2.124-1.225 2.138-5.172.03-8.817s-5.538-5.607-7.662-4.382c-2.125 1.225-2.138 5.172-.03 8.817s5.537 5.607 7.662 4.382m28.964-16.696c2.123-1.224 2.136-5.17.028-8.816-2.107-3.644-5.537-5.607-7.66-4.383s-2.135 5.17-.028 8.816c2.108 3.644 5.537 5.607 7.66 4.383"/></svg>
